icon-themes/breeze_svg/cmd/lc_sectionshrinkbottom.svg

<svg viewBox="0 0 24 24" xmlns="http://www.w3.org/2000/svg"><path d="m4 4v3h3v-3zm13 0v3h3v-3zm-12 1h1v1h-1zm13 0h1v1h-1zm-10 1v1h2v-1zm3 0v1h2v-1zm3 0v1h2v-1zm-8 2v2h1v-2zm11 0v2h1v-2zm-11 3v2h1v-2zm11 0v2h1v-2zm-9 3v1h2v-1zm3 0v1h2v-1zm3 0v1h2v-1z" fill="#4d4d4d"/><path d="m4 14v3h3v-3zm13 0v3h3v-3zm-12 1h1v1h-1zm13 0h1v1h-1z" fill="#1d99f3"/></svg>

<svg xmlns="http://www.w3.org/2000/svg" viewBox="0 0 24 24">
 <path 
     style="fill:#4d4d4d" 
     d="M 4 4 L 4 7 L 7 7 L 7 4 L 4 4 z M 17 4 L 17 7 L 20 7 L 20 4 L 17 4 z M 5 5 L 6 5 L 6 6 L 5 6 L 5 5 z M 18 5 L 19 5 L 19 6 L 18 6 L 18 5 z M 8 6 L 8 7 L 10 7 L 10 6 L 8 6 z M 11 6 L 11 7 L 13 7 L 13 6 L 11 6 z M 14 6 L 14 7 L 16 7 L 16 6 L 14 6 z M 6 8 L 6 10 L 7 10 L 7 8 L 6 8 z M 17 8 L 17 10 L 18 10 L 18 8 L 17 8 z M 6 11 L 6 13 L 7 13 L 7 11 L 6 11 z M 17 11 L 17 13 L 18 13 L 18 11 L 17 11 z M 8 14 L 8 15 L 10 15 L 10 14 L 8 14 z M 11 14 L 11 15 L 13 15 L 13 14 L 11 14 z M 14 14 L 14 15 L 16 15 L 16 14 L 14 14 z "
     />
 <path 
     style="fill:#1d99f3" 
     d="M 4 14 L 4 17 L 7 17 L 7 14 L 4 14 z M 17 14 L 17 17 L 20 17 L 20 14 L 17 14 z M 5 15 L 6 15 L 6 16 L 5 16 L 5 15 z M 18 15 L 19 15 L 19 16 L 18 16 L 18 15 z "
     />
 </svg>
